X:1
T:Spoted Borders
T:Turbit and Venison
L:1/8
M:6/8
Z:Nick Howard <nickthefiddle@worldonline.co.uk> tradtunes 2012-7-13
N:1st title from Joseph Kershaw manuscript (1910)
N:2nd title from Thompson's Compleat Collection of 200 Favourite Country Dances, vol. 1 (London, 1757)
K:D
D2A D2c|dcB AGF|G2B E2B|G2B E2B|\
D2A D2c|dcB AGF|GAB edc|d3 d3:|]!
|:\
A2a A2g|A2f ecA|faf ecA|faf ecA|\
BdB AFD|BdB A2g|fed edc|d3 d3 :|]!
